src/components/00-materials/images-raw/Climate Event.svg

<svg width="96" height="96" viewBox="0 0 96 96" fill="none" xmlns="http://www.w3.org/2000/svg">
<path d="M73 15.22H19C17.6193 15.22 16.5 16.3393 16.5 17.72V19.28C16.5 20.6607 17.6193 21.78 19 21.78H73C74.3807 21.78 75.5 20.6607 75.5 19.28V17.72C75.5 16.3393 74.3807 15.22 73 15.22Z" stroke="#00008F" stroke-width="2" stroke-linecap="round" stroke-linejoin="round"/>
<path d="M68.26 21.78H21.75C20.3693 21.78 19.25 22.8993 19.25 24.28V25.84C19.25 27.2207 20.3693 28.34 21.75 28.34H68.26C69.6407 28.34 70.76 27.2207 70.76 25.84V24.28C70.76 22.8993 69.6407 21.78 68.26 21.78Z" stroke="#00008F" stroke-width="2" stroke-linecap="round" stroke-linejoin="round"/>
<path d="M64.44 28.33H29.17C27.7893 28.33 26.67 29.4492 26.67 30.83V32.38C26.67 33.7607 27.7893 34.88 29.17 34.88H64.44C65.8207 34.88 66.94 33.7607 66.94 32.38V30.83C66.94 29.4492 65.8207 28.33 64.44 28.33Z" stroke="#00008F" stroke-width="2" stroke-linecap="round" stroke-linejoin="round"/>
<path d="M61.63 34.89H32.92C31.5393 34.89 30.42 36.0093 30.42 37.39V38.95C30.42 40.3307 31.5393 41.45 32.92 41.45H61.63C63.0107 41.45 64.13 40.3307 64.13 38.95V37.39C64.13 36.0093 63.0107 34.89 61.63 34.89Z" stroke="#00008F" stroke-width="2" stroke-linecap="round" stroke-linejoin="round"/>
<path d="M58.83 41.4399H31.05C29.6693 41.4399 28.55 42.5592 28.55 43.9399V45.4999C28.55 46.8807 29.6693 47.9999 31.05 47.9999H58.83C60.2107 47.9999 61.33 46.8807 61.33 45.4999V43.9399C61.33 42.5592 60.2107 41.4399 58.83 41.4399Z" stroke="#00008F" stroke-width="2" stroke-linecap="round" stroke-linejoin="round"/>
<path d="M57.83 48H27.24C25.8593 48 24.74 49.1193 24.74 50.5V52.06C24.74 53.4407 25.8593 54.56 27.24 54.56H57.83C59.2107 54.56 60.33 53.4407 60.33 52.06V50.5C60.33 49.1193 59.2107 48 57.83 48Z" stroke="#00008F" stroke-width="2" stroke-linecap="round" stroke-linejoin="round"/>
<path d="M54.89 54.5599H28.05C26.6693 54.5599 25.55 55.6792 25.55 57.0599V58.6199C25.55 60.0006 26.6693 61.1199 28.05 61.1199H54.89C56.2707 61.1199 57.39 60.0006 57.39 58.6199V57.0599C57.39 55.6792 56.2707 54.5599 54.89 54.5599Z" stroke="#00008F" stroke-width="2" stroke-linecap="round" stroke-linejoin="round"/>
<path d="M56.95 61.11H38.54C37.1593 61.11 36.04 62.2293 36.04 63.61V65.16C36.04 66.5407 37.1593 67.66 38.54 67.66H56.95C58.3307 67.66 59.45 66.5407 59.45 65.16V63.61C59.45 62.2293 58.3307 61.11 56.95 61.11Z" stroke="#00008F" stroke-width="2" stroke-linecap="round" stroke-linejoin="round"/>
<path d="M58.95 67.6699H45.22C43.8393 67.6699 42.72 68.7892 42.72 70.1699V71.7299C42.72 73.1106 43.8393 74.2299 45.22 74.2299H58.95C60.3307 74.2299 61.45 73.1106 61.45 71.7299V70.1699C61.45 68.7892 60.3307 67.6699 58.95 67.6699Z" stroke="#00008F" stroke-width="2" stroke-linecap="round" stroke-linejoin="round"/>
<path d="M54.58 74.22H52.02C50.6393 74.22 49.52 75.3393 49.52 76.72V78.28C49.52 79.6607 50.6393 80.78 52.02 80.78H54.58C55.9607 80.78 57.08 79.6607 57.08 78.28V76.72C57.08 75.3393 55.9607 74.22 54.58 74.22Z" stroke="#00008F" stroke-width="2" stroke-linecap="round" stroke-linejoin="round"/>
</svg>

<svg width="96" height="96" viewBox="0 0 96 96" fill="none" xmlns="http://www.w3.org/2000/svg"><path d="M73 15.22H19a2.5 2.5 0 00-2.5 2.5v1.56a2.5 2.5 0 002.5 2.5h54a2.5 2.5 0 002.5-2.5v-1.56a2.5 2.5 0 00-2.5-2.5zM68.26 21.78H21.75a2.5 2.5 0 00-2.5 2.5v1.56a2.5 2.5 0 002.5 2.5h46.51a2.5 2.5 0 002.5-2.5v-1.56a2.5 2.5 0 00-2.5-2.5z" stroke="#00008F" stroke-width="2" stroke-linecap="round" stroke-linejoin="round"/><path d="M64.44 28.33H29.17a2.5 2.5 0 00-2.5 2.5v1.55a2.5 2.5 0 002.5 2.5h35.27a2.5 2.5 0 002.5-2.5v-1.55a2.5 2.5 0 00-2.5-2.5zM61.63 34.89H32.92a2.5 2.5 0 00-2.5 2.5v1.56a2.5 2.5 0 002.5 2.5h28.71a2.5 2.5 0 002.5-2.5v-1.56a2.5 2.5 0 00-2.5-2.5z" stroke="#00008F" stroke-width="2" stroke-linecap="round" stroke-linejoin="round"/><path d="M58.83 41.44H31.05a2.5 2.5 0 00-2.5 2.5v1.56a2.5 2.5 0 002.5 2.5h27.78a2.5 2.5 0 002.5-2.5v-1.56a2.5 2.5 0 00-2.5-2.5zM57.83 48H27.24a2.5 2.5 0 00-2.5 2.5v1.56a2.5 2.5 0 002.5 2.5h30.59a2.5 2.5 0 002.5-2.5V50.5a2.5 2.5 0 00-2.5-2.5zM54.89 54.56H28.05a2.5 2.5 0 00-2.5 2.5v1.56a2.5 2.5 0 002.5 2.5h26.84a2.5 2.5 0 002.5-2.5v-1.56a2.5 2.5 0 00-2.5-2.5z" stroke="#00008F" stroke-width="2" stroke-linecap="round" stroke-linejoin="round"/><path d="M56.95 61.11H38.54a2.5 2.5 0 00-2.5 2.5v1.55a2.5 2.5 0 002.5 2.5h18.41a2.5 2.5 0 002.5-2.5v-1.55a2.5 2.5 0 00-2.5-2.5zM58.95 67.67H45.22a2.5 2.5 0 00-2.5 2.5v1.56a2.5 2.5 0 002.5 2.5h13.73a2.5 2.5 0 002.5-2.5v-1.56a2.5 2.5 0 00-2.5-2.5z" stroke="#00008F" stroke-width="2" stroke-linecap="round" stroke-linejoin="round"/><path d="M54.58 74.22h-2.56a2.5 2.5 0 00-2.5 2.5v1.56a2.5 2.5 0 002.5 2.5h2.56a2.5 2.5 0 002.5-2.5v-1.56a2.5 2.5 0 00-2.5-2.5z" stroke="#00008F" stroke-width="2" stroke-linecap="round" stroke-linejoin="round"/></svg>
